X: 12610
T: Farewell To Westport
R: jig
M: 6/8
K: Adorian
|:EAA ABc|BAB G2A|BGG dGG|~c3 BAG|
~E3 ABc|BAB G2A|~B3 dcB|BA^G A3:|
|:eaa age|ged ~c3|Acc Add|Acc ~B3|
eaa age|ged ~c3|Add dcB|BA^G A3:|

